!!!COM: Clementi, Muzio
!!!CDT: 1752/01/23/-1832/03/10/
!!!ODT: ~1800///
!!!OTL: Sonata No. 2 in G Major, Op. 36, Mvmt. 2
!!!OPS: Op. 36
!!!ONM: No. 2
!!!OMV: 2. Allegretto
**kern	**kern	**dynam
*staff2	*staff1	*staff1/2
*Ipiano	*Ipiano	*Ipiano
*clefF4	*clefG2	*clefG2
*k[]	*k[]	*k[]
*C:	*C:	*C:
*M3/4	*M3/4	*M3/4
*MM110	*MM110	*MM110
=1-	=1-	=1-
2c\	8.e/L	.
.	16g/Jk	.
.	8.cc\L	.
.	16a\Jk	.
4B\	8.g/L	.
.	16f/Jk	.
=2	=2	=2
2c\	8.e/L	.
.	16g/Jk	.
.	8.cc\L	.
.	16a\Jk	.
4B\	8.g/L	.
.	16f/Jk	.
=3	=3	=3
4c\	8.e/L	.
.	16g/Jk	.
2F\	8.a/L	.
.	16f/Jk	.
.	8.d/L	.
.	16c/Jk	.
=4	=4	=4
4G\	8.B/L	.
.	16d/Jk	.
8.E\L	4c/	.
16G\Jk	.	.
8.E\L	4r	.
16C\Jk	.	.
=5	=5	=5
8.BB/L	2d/ 2f/	.
16D/Jk	.	.
8.GG/L	.	.
16BB/Jk	.	.
8.C\L	4c/ 4e/	p
16E\Jk	.	.
=6	=6	=6
8.BB/L	(2d/ 2f/	.
16D/Jk	.	.
8.GG/L	.	.
16BB/Jk	.	.
8.C\L	4c/) 4e/	p
16E\Jk	.	.
*	*clefF4	*clefF4
=7	=7	=7
4F\	8.A\L	.
.	16d\Jk	.
4GG/ 4E/	8.G\L	.
.	16c\Jk	.
4GG/ 4D/	8.F\L	.
.	16B\Jk	.
=8	=8	=8
4C/	2F\ 2B\ 2d\	.
4GG/	.	.
4CC/	4E\ 4c\	.
*	*clefG2	*clefG2
=9	=9	=9
2G#\	8.e/L	.
.	16ee/Jk	.
.	8.dd\L	.
.	16b\Jk	.
4A\	8.cc\L	.
.	16a\Jk	.
=10	=10	=10
2d\	8.g#/L	.
.	16b/Jk	.
.	8.e/L	.
.	16g#/Jk	.
4c\	8.a\L	.
.	16cc\Jk	.
=11	=11	=11
2F#\	8.d/L	.
.	16dd/Jk	.
.	8.cc\L	.
.	16a\Jk	.
4Gn\	8.b/L	.
.	16gn/Jk	.
=12	=12	=12
4c\	8.f#/L	.
.	16dd/Jk	.
4B\	8.g\L	.
.	16dd\Jk	.
4F#\	8.a\L	.
.	16dd\Jk	.
=13	=13	=13
4G\	8.b\L	.
.	16gg\Jk	.
4A\	8.cc\L	f
.	16gg\Jk	.
4B\	8.dd\L	.
.	16gg\Jk	.
=14	=14	=14
4c\	8.ee\L	.
.	16bb\Jk	.
4A\	8.ff#\L	.
.	16aa\Jk	.
4B\	8.gg\L	.
.	16b\ 16dd\Jk	.
=15	=15	=15
4C/	8.b\ 8.dd\L	.
.	16a\ 16cc\Jk	.
4D\	4g/ 4b/	.
4DD/	4f#/ 4a/	.
=16	=16	=16
8.GG/L	(4g'/	.
16G/Jk	.	.
8.AA\L	4f#/)	.
16G\Jk	.	.
8.BB\L	4f#/	.
16G\Jk	.	.
=17	=17	=17
2C/	8.e/L	p
.	16g/Jk	.
.	8.cc\L	.
.	16a\Jk	.
4BB/	8.g/L	.
.	16f/Jk	.
=18	=18	=18
2C/	8.e/L	.
.	16g/Jk	.
.	8.cc\L	.
.	16a\Jk	.
4BB/	8.g/L	.
.	16f/Jk	.
=19	=19	=19
4C/	8.e/L	.
.	16g/Jk	.
2F\	8.a/L	.
.	16f/Jk	.
.	8.d/L	.
.	16c/Jk	.
=20	=20	=20
4G\	8.B/L	.
.	16d/Jk	.
8.E\L	4c/	.
16G\Jk	.	.
8.E\L	4r	.
16C\Jk	.	.
=21	=21	=21
8.BB/L	2d/ 2f/	.
16D/Jk	.	.
8.GG/L	.	.
16BB/Jk	.	.
8.C\L	4c/ 4e/	.
16E\Jk	.	.
=22	=22	=22
8.BB/L	2d/ 2f/	.
16D/Jk	.	.
8.GG/L	.	.
16BB/Jk	.	.
8.C\L	4c/ 4e/	.
16E\Jk	.	.
*	*clefF4	*clefF4
=23	=23	=23
4F\	8.A\L	.
.	16d\Jk	.
4GG/ 4E/	8.G\L	.
.	16c\Jk	.
4GG/ 4D/	8.F\L	.
.	16B\Jk	.
*	*clefG2	*clefG2
=24	=24	=24
4C\ 4E\	8.c/L	.
.	16cc/Jk	.
4r	8.b/L	.
.	16a/Jk	.
4r	8.g/L	.
.	16f#/Jk	.
=25	=25	=25
8.BB/L	2d/ 2fn/	p
16D/Jk	.	.
8.GG/L	.	.
16BB/Jk	.	.
8.C\L	4c/ 4e/	.
16E\Jk	.	.
=26	=26	=26
8.BB/L	2d/ 2f/	p
16D/Jk	.	.
8.GG/L	.	.
16BB/Jk	.	.
8.C\L	4c/ 4e/	.
16E\Jk	.	.
*	*clefF4	*clefF4
=27	=27	=27
4FF/	8.A\L	.
.	16d\Jk	.
4GG/ 4E/	8.G\L	.
.	16c\Jk	.
4GG/ 4D/	8.F\L	.
.	16B\Jk	.
=28	=28	=28
4C/	2F\ 2B\ 2d\	.
4GG/	.	.
4CC/	4E\ 4c\	.
==	==	==
*-	*-	*-
!!!ENC: Craig Stuart Sapp
!!!END: 2004/11/26/
